build/img/stack.svg

<svg xmlns="http://www.w3.org/2000/svg">:root svg:not(:target) { display: none; }<svg viewBox="0 0 19.696 17.07"><path d="M19.46.15c.17.15.26.38.22.61l-2.62 15.76c-.04.22-.19.4-.39.49-.21.09-.44.07-.63-.06L8.17 11.7a.635.635 0 01-.29-.44.63.63 0 01.14-.51l2.61-3.27-4.36 2.91c-.2.13-.45.15-.66.04L.36 7.8A.627.627 0 010 7.18c.01-.27.18-.49.43-.58L18.81.03c.22-.08.47-.03.65.12zM2.32 7.32l3.54 1.77 7.56-5.05c.27-.18.63-.13.85.11.22.24.23.6.03.85l-4.81 6.01 6.44 4.29L18.2 1.65 2.32 7.32z"/></svg><svg viewBox="0 0 26.963 17"><path d="M0 2.33C0 1.48.51 1.02 1.54.95l3.97.03c.27 0 .44.12.53.37.41 1.26.87 2.35 1.38 3.26.5.91 1.16 1.97 1.98 3.16.07.15.19.22.35.22.12 0 .22-.06.29-.17l.08-.28.03-4.35c0-.3-.08-.5-.23-.6-.15-.11-.43-.18-.84-.23-.32-.05-.48-.24-.48-.55 0-.07.01-.12.03-.16C9 .57 10.07.02 11.82.02l1.5-.02c.67 0 1.23.15 1.68.47.44.32.66.82.66 1.51v5.71c.13.08.24.13.35.13.26 0 .49-.15.69-.46 1.95-2.58 3.01-4.31 3.17-5.18 0-.01.02-.06.05-.12.13-.25.33-.47.62-.66.28-.18.53-.31.74-.37a.47.47 0 01.24-.05h4.13l.27.02c.35 0 .63.16.82.48.08.1.12.21.15.33.03.11.05.23.05.35.01.12.02.18.02.2v.18c-.13.68-.44 1.42-.95 2.2-.5.78-1.15 1.62-1.93 2.52-.78.91-1.27 1.5-1.46 1.79-.16.2-.24.38-.24.55 0 .14.07.29.21.45l3.89 4.63c.21.27.32.56.32.88 0 .39-.16.71-.48.96-.32.25-.7.39-1.15.42l-.45.03h-4.05c-.02 0-.05 0-.11.01-.05.01-.09.02-.1.02-.39 0-.76-.16-1.1-.48-.12-.14-.95-1.13-2.5-2.97-.09-.12-.21-.23-.37-.33-.07.27-.17.66-.28 1.16-.12.5-.2.86-.26 1.08l-.08.43c-.17.59-.55.94-1.11 1.05l-.38.03h-2.61c-1.47 0-2.94-.64-4.41-1.91-1.46-1.28-2.78-2.92-3.95-4.94C2.23 8.1 1.14 5.75.13 3.06.04 2.85 0 2.6 0 2.33zm16.01 6.52c-.38 0-.71-.1-1.01-.29-.31-.19-.46-.46-.46-.79V1.98c0-.33-.09-.57-.26-.71-.18-.15-.49-.22-.94-.22l-1.52.05c-.76 0-1.34.13-1.73.38.78.35 1.18.92 1.18 1.71v4.42c-.04.42-.22.77-.54 1.05-.32.28-.67.41-1.06.41-.54 0-.94-.24-1.23-.73-1.38-1.97-2.41-3.85-3.09-5.63l-.24-.65-3.54-.03c-.23 0-.36.01-.39.04-.03.02-.04.1-.04.21 0 .15.02.31.05.48l.56 1.41c1.5 3.64 3.12 6.5 4.87 8.6 1.75 2.1 3.46 3.14 5.15 3.14h2.67c.1 0 .18-.03.24-.08.05-.06.09-.18.13-.34l.05-.26.51-2.21c.14-.3.26-.5.37-.6.2-.19.43-.28.69-.28.43 0 .87.24 1.31.73L20 15.59c.15.21.3.32.46.32h4.39c.54 0 .8-.12.8-.37 0-.09-.02-.17-.08-.25l-3.86-4.56c-.3-.35-.45-.73-.45-1.13 0-.4.14-.79.42-1.16.23-.33.68-.89 1.35-1.67.66-.78 1.25-1.51 1.74-2.19.5-.67.83-1.29.99-1.84l.08-.33a.323.323 0 01-.03-.16.92.92 0 00-.02-.19H21.6c-.26.1-.48.25-.64.45l-.16.48c-.44 1.15-1.6 2.94-3.49 5.35-.37.34-.81.51-1.3.51z"/></svg><svg viewBox="0 0 24 18.676"><path d="M15.85 8.79L10.61 5.3a.568.568 0 00-.33-.11.573.573 0 00-.34.08.64.64 0 00-.34.57v6.98a.64.64 0 00.34.58c.11.06.22.08.34.08a.65.65 0 00.33-.11l5.24-3.49c.09-.06.16-.14.21-.24.05-.09.08-.2.08-.31a.659.659 0 00-.29-.54zM10.9 11.6V7.06l3.41 2.27-3.41 2.27zm12.48-8.56c-.09-.37-.27-.71-.52-.99-.26-.29-.57-.51-.93-.65C18.21-.03 12.25 0 12 0c-.26 0-6.22-.03-9.94 1.4-.36.14-.67.36-.93.65-.25.28-.43.62-.52.99C.32 4.11 0 6.07 0 9.33c0 3.27.32 5.23.61 6.3.09.37.27.71.52.99.26.29.57.51.93.64 3.72 1.43 9.68 1.41 9.94 1.41h.07c.75 0 6.32-.04 9.86-1.41.36-.13.67-.35.93-.64.25-.28.43-.62.52-.99.29-1.07.62-3.03.62-6.3 0-3.26-.33-5.22-.62-6.29zM22.12 15.3a1.09 1.09 0 01-.66.74c-3.49 1.34-9.4 1.32-9.46 1.32-.07 0-5.98.02-9.47-1.32a1.09 1.09 0 01-.66-.74c-.26-1-.57-2.85-.57-5.97 0-3.12.31-4.96.57-5.96.04-.17.13-.32.24-.45.11-.13.26-.23.42-.3C6.02 1.28 11.93 1.3 12 1.3c.06 0 5.97-.02 9.46 1.32.16.07.31.17.42.3.11.13.2.28.24.45.26 1 .57 2.84.57 5.96s-.31 4.97-.57 5.97z"/></svg><svg viewBox="0 0 27 34"><path d="M13.64.01L13.5 0 0 1.4v24.61L13.5 34 27 26.01V1.4L13.64.01zm11.59 25L13.5 31.95 1.76 25.01V14.92l11.69 6.92.02 1.25-8.02-4.74-.01 1.23 8.04 4.8.02 1.29-8.04-4.76-.01 1.23 8.05 4.81 8.12-4.84V16.9l3.62-2.15-.01 10.26zm0-11.56l-3.22 1.88-1.48.87-7.07-4.18-.01 1.22 6.04 3.57-.05.03-.13.08-.86.49-4.99-2.95-.01 1.23 3.94 2.33-.94.61-.02.01-2.97-1.74-.01 1.22 1.95 1.14-1.99 1.18-11.62-6.87 11.64-6.96 11.8 6.84zm0-1.23L13.44 5.31l-11.68 6.9V2.98L13.5 1.76l11.73 1.22v9.24z"/></svg><svg viewBox="0 0 128 24"><path d="M1.62 21.95a9.331 9.331 0 01-1.6-5.72V7.76c-.14-2.06.39-4.1 1.5-5.82C2.62.61 4.32 0 6.83 0c2.5 0 4.1.61 5.1 1.73a7.434 7.434 0 011.51 5.01v2.04H8.53V6.43c.04-.7-.06-1.39-.3-2.04-.13-.27-.33-.49-.58-.63-.25-.15-.54-.21-.82-.19-.71 0-1.21.2-1.41.71-.22.73-.32 1.49-.3 2.25v10.93c-.05.74.09 1.48.4 2.14.2.51.71.72 1.41.72s1.1-.21 1.3-.72c.23-.69.33-1.41.3-2.14v-2.45h4.91v2.04c.1 1.83-.43 3.64-1.51 5.11-1 1.22-2.7 1.84-5.1 1.84-2.41-.11-4.21-.72-5.21-2.05zM19.34.3h5.71l4.21 23.29h-4.61l-.8-4.91h-3.3l-.81 4.91h-4.7L19.34.3zm4.11 15.32l-1.2-9.09-1.2 9.09h2.4zM32.76 4.18h-3.4V.3h11.91v3.78h-3.4v19.51h-5.11V4.18zM50.39.3h8.81v2.45h-5.71v7.66h4.61v2.35h-4.61v8.58h5.71v2.35h-8.91V.3h.1zM61.8.3h2.21l6.5 15.42V.3h2.61v23.29h-2L64.51 7.65v15.94H61.8V.3zM76.12.3h8.81v2.45h-5.7v7.66h4.6v2.35h-4.6v8.58h5.7v2.35h-8.81V.3zM87.54.3h4.6a7.89 7.89 0 015.11 1.43c1.1.92 1.6 2.55 1.6 4.7 0 2.96-.9 4.8-2.8 5.41l3.2 11.64h-3.1l-3-10.92h-2.51v10.92h-3.2V.3h.1zm4.4 10.01c1.04.09 2.07-.2 2.91-.82.6-.51.9-1.53.9-3.06.03-.76-.07-1.52-.3-2.25-.23-.52-.61-.95-1.1-1.22-.69-.32-1.45-.46-2.21-.41h-1.4v7.66h1.2v.1zM102.86 21.85a10.48 10.48 0 01-1.4-5.92V8.17c-.03-1.48.14-2.96.5-4.4.33-1.07 1-2 1.9-2.65 1.12-.68 2.41-1 3.71-.92 2.1 0 3.6.51 4.5 1.63a7.933 7.933 0 011.41 5.11v.82h-3.01v-.72c.01-.85-.06-1.71-.2-2.55-.08-.53-.37-1.01-.8-1.33a2.99 2.99 0 00-1.9-.51c-.72-.05-1.43.17-2.01.61a2.414 2.414 0 00-.8 1.64c-.13.91-.2 1.83-.2 2.75v8.69c-.07 1.32.13 2.64.6 3.88.4.81 1.21 1.12 2.41 1.12.47.06.95-.02 1.38-.24.43-.22.78-.56 1.02-.99.53-1.29.77-2.68.7-4.08V14.4h-2.9v-2.35h5.81v11.54h-2.01l-.3-2.66c-.26.89-.81 1.67-1.55 2.2-.74.54-1.64.81-2.55.76-.83.05-1.66-.11-2.41-.46-.75-.36-1.4-.9-1.9-1.58zM119.98 15.42L115.08.4h3l3.51 11.24L124.99.4H128l-4.91 15.02v8.17h-3.01v-8.17h-.1z"/></svg><svg viewBox="0 0 24 18" fill="none"><path d="M8 0L0 9l8 9V0zm16 9l-8-9v18l8-9z" fill="#666" fill-rule="evenodd"/></svg></svg>

<svg xmlns="http://www.w3.org/2000/svg"><style>:root svg:not(:target){display:none}</style><svg viewBox="0 0 27 34" fill="none" id="html-academy"><path id="html-academy_0" d="M13.64 0.01L13.5 0L0 1.4L0 26.01L13.5 34L27 26.01L27 1.4L13.64 0.01ZM25.23 25.01L13.5 31.95L1.76 25.01L1.76 14.92L13.45 21.84L13.47 23.09L5.45 18.35L5.44 19.58L13.48 24.38L13.5 25.67L5.46 20.91L5.45 22.14L13.5 26.95L21.62 22.11L21.62 20.89L21.62 16.9L25.24 14.75L25.23 25.01ZM25.23 13.45L22.01 15.33L20.53 16.2L13.46 12.02L13.45 13.24L19.49 16.81L19.44 16.84L19.31 16.92L18.45 17.41L13.46 14.46L13.45 15.69L17.39 18.02L16.45 18.63L16.43 18.64L13.46 16.9L13.45 18.12L15.4 19.26L13.41 20.44L1.79 13.57L13.43 6.61L25.23 13.45ZM25.23 12.22L13.44 5.31L1.76 12.21L1.76 2.98L13.5 1.76L25.23 2.98L25.23 12.22Z" fill="#666666" fill-opacity="1.000000" fill-rule="nonzero"></path></svg><svg viewBox="0 0 128 24" fill="none" id="logo-cat"><path d="M1.62 21.95C0.48 20.28 -0.08 18.27 0.02 16.23L0.02 7.76C-0.12 5.7 0.41 3.66 1.52 1.94C2.62 0.61 4.32 0 6.83 0C9.33 0 10.93 0.61 11.93 1.73C13.02 3.15 13.56 4.94 13.44 6.74L13.44 8.78L8.53 8.78L8.53 6.43C8.57 5.73 8.47 5.04 8.23 4.39C8.1 4.12 7.9 3.9 7.65 3.76C7.4 3.61 7.11 3.55 6.83 3.57C6.12 3.57 5.62 3.77 5.42 4.28C5.2 5.01 5.1 5.77 5.12 6.53L5.12 17.46C5.07 18.2 5.21 18.94 5.52 19.6C5.72 20.11 6.23 20.32 6.93 20.32C7.63 20.32 8.03 20.11 8.23 19.6C8.46 18.91 8.56 18.19 8.53 17.46L8.53 15.01L13.44 15.01L13.44 17.05C13.54 18.88 13.01 20.69 11.93 22.16C10.93 23.38 9.23 24 6.83 24C4.42 23.89 2.62 23.28 1.62 21.95Z" fill="#111111" fill-opacity="1.000000" fill-rule="nonzero"></path><path d="M19.34 0.3L25.05 0.3L29.26 23.59L24.65 23.59L23.85 18.68L20.55 18.68L19.74 23.59L15.04 23.59L19.34 0.3ZM23.45 15.62L22.25 6.53L21.05 15.62L23.45 15.62Z" fill="#111111" fill-opacity="1.000000" fill-rule="nonzero"></path><path d="M32.76 4.18L29.36 4.18L29.36 0.3L41.27 0.3L41.27 4.08L37.87 4.08L37.87 23.59L32.76 23.59L32.76 4.18Z" fill="#111111" fill-opacity="1.000000" fill-rule="nonzero"></path><path d="M50.39 0.3L59.2 0.3L59.2 2.75L53.49 2.75L53.49 10.41L58.1 10.41L58.1 12.76L53.49 12.76L53.49 21.34L59.2 21.34L59.2 23.69L50.29 23.69L50.29 0.3L50.39 0.3Z" fill="#111111" fill-opacity="1.000000" fill-rule="nonzero"></path><path d="M61.8 0.3L64.01 0.3L70.51 15.72L70.51 0.3L73.12 0.3L73.12 23.59L71.12 23.59L64.51 7.65L64.51 23.59L61.8 23.59L61.8 0.3Z" fill="#111111" fill-opacity="1.000000" fill-rule="nonzero"></path><path d="M76.12 0.3L84.93 0.3L84.93 2.75L79.23 2.75L79.23 10.41L83.83 10.41L83.83 12.76L79.23 12.76L79.23 21.34L84.93 21.34L84.93 23.69L76.12 23.69L76.12 0.3Z" fill="#111111" fill-opacity="1.000000" fill-rule="nonzero"></path><path d="M87.54 0.3L92.14 0.3C93.96 0.17 95.76 0.68 97.25 1.73C98.35 2.65 98.85 4.28 98.85 6.43C98.85 9.39 97.95 11.23 96.05 11.84L99.25 23.48L96.15 23.48L93.15 12.56L90.64 12.56L90.64 23.48L87.44 23.48L87.44 0.3L87.54 0.3ZM91.94 10.31C92.98 10.4 94.01 10.11 94.85 9.49C95.45 8.98 95.75 7.96 95.75 6.43C95.78 5.67 95.68 4.91 95.45 4.18C95.22 3.66 94.84 3.23 94.35 2.96C93.66 2.64 92.9 2.5 92.14 2.55L90.74 2.55L90.74 10.21L91.94 10.21L91.94 10.31Z" fill="#111111" fill-opacity="1.000000" fill-rule="nonzero"></path><path d="M102.86 21.85C101.82 20.06 101.33 18 101.46 15.93L101.46 8.17C101.43 6.69 101.6 5.21 101.96 3.77C102.29 2.7 102.96 1.77 103.86 1.12C104.98 0.44 106.27 0.12 107.57 0.2C109.67 0.2 111.17 0.71 112.07 1.83C113.11 3.32 113.61 5.12 113.48 6.94L113.48 7.76L110.47 7.76L110.47 7.04C110.48 6.19 110.41 5.33 110.27 4.49C110.19 3.96 109.9 3.48 109.47 3.16C108.91 2.78 108.24 2.6 107.57 2.65C106.85 2.6 106.14 2.82 105.56 3.26C105.33 3.47 105.14 3.71 105 4C104.86 4.28 104.78 4.58 104.76 4.9C104.63 5.81 104.56 6.73 104.56 7.65L104.56 16.34C104.49 17.66 104.69 18.98 105.16 20.22C105.56 21.03 106.37 21.34 107.57 21.34C108.04 21.4 108.52 21.32 108.95 21.1C109.38 20.88 109.73 20.54 109.97 20.11C110.5 18.82 110.74 17.43 110.67 16.03L110.67 14.4L107.77 14.4L107.77 12.05L113.58 12.05L113.58 23.59L111.57 23.59L111.27 20.93C111.01 21.82 110.46 22.6 109.72 23.13C108.98 23.67 108.08 23.94 107.17 23.89C106.34 23.94 105.51 23.78 104.76 23.43C104.01 23.07 103.36 22.53 102.86 21.85Z" fill="#111111" fill-opacity="1.000000" fill-rule="nonzero"></path><path d="M119.98 15.42L115.08 0.4L118.08 0.4L121.59 11.64L124.99 0.4L128 0.4L123.09 15.42L123.09 23.59L120.08 23.59L120.08 15.42L119.98 15.42Z" fill="#111111" fill-opacity="1.000000" fill-rule="nonzero"></path></svg><svg viewBox="0 0 19.6962 17.0701" fill="none" id="telegram"><path d="M19.46 0.15C19.63 0.3 19.72 0.53 19.68 0.76L17.06 16.52C17.02 16.74 16.87 16.92 16.67 17.01C16.46 17.1 16.23 17.08 16.04 16.95L8.17 11.7C8.01 11.6 7.91 11.44 7.88 11.26C7.85 11.08 7.9 10.89 8.02 10.75L10.63 7.48L6.27 10.39C6.07 10.52 5.82 10.54 5.61 10.43L0.36 7.8C0.12 7.69 -0.02 7.44 0 7.18C0.01 6.91 0.18 6.69 0.43 6.6L18.81 0.03C19.03 -0.05 19.28 0 19.46 0.15ZM2.32 7.32L5.86 9.09L13.42 4.04C13.69 3.86 14.05 3.91 14.27 4.15C14.49 4.39 14.5 4.75 14.3 5L9.49 11.01L15.93 15.3L18.2 1.65L2.32 7.32Z" fill="#666666" fill-opacity="1.000000" fill-rule="evenodd"></path></svg><svg viewBox="0 0 26.963 17" fill="none" id="vkontakte"><path d="M0 2.33C0 1.48 0.51 1.02 1.54 0.95L5.51 0.98C5.78 0.98 5.95 1.1 6.04 1.35C6.45 2.61 6.91 3.7 7.42 4.61C7.92 5.52 8.58 6.58 9.4 7.77C9.47 7.92 9.59 7.99 9.75 7.99C9.87 7.99 9.97 7.93 10.04 7.82L10.12 7.54L10.15 3.19C10.15 2.89 10.07 2.69 9.92 2.59C9.77 2.48 9.49 2.41 9.08 2.36C8.76 2.31 8.6 2.12 8.6 1.81C8.6 1.74 8.61 1.69 8.63 1.65C9 0.57 10.07 0.02 11.82 0.02L13.32 0C13.99 0 14.55 0.15 15 0.47C15.44 0.79 15.66 1.29 15.66 1.98L15.66 7.69C15.79 7.77 15.9 7.82 16.01 7.82C16.27 7.82 16.5 7.67 16.7 7.36C18.65 4.78 19.71 3.05 19.87 2.18C19.87 2.17 19.89 2.12 19.92 2.06C20.05 1.81 20.25 1.59 20.54 1.4C20.82 1.22 21.07 1.09 21.28 1.03C21.35 0.99 21.43 0.98 21.52 0.98L25.65 0.98L25.92 1C26.27 1 26.55 1.16 26.74 1.48C26.82 1.58 26.86 1.69 26.89 1.81C26.92 1.92 26.94 2.04 26.94 2.16C26.95 2.28 26.96 2.34 26.96 2.36L26.96 2.54C26.83 3.22 26.52 3.96 26.01 4.74C25.51 5.52 24.86 6.36 24.08 7.26C23.3 8.17 22.81 8.76 22.62 9.05C22.46 9.25 22.38 9.43 22.38 9.6C22.38 9.74 22.45 9.89 22.59 10.05L26.48 14.68C26.69 14.95 26.8 15.24 26.8 15.56C26.8 15.95 26.64 16.27 26.32 16.52C26 16.77 25.62 16.91 25.17 16.94L24.72 16.97L20.67 16.97C20.65 16.97 20.62 16.97 20.56 16.98C20.51 16.99 20.47 17 20.46 17C20.07 17 19.7 16.84 19.36 16.52C19.24 16.38 18.41 15.39 16.86 13.55C16.77 13.43 16.65 13.32 16.49 13.22C16.42 13.49 16.32 13.88 16.21 14.38C16.09 14.88 16.01 15.24 15.95 15.46L15.87 15.89C15.7 16.48 15.32 16.83 14.76 16.94L14.38 16.97L11.77 16.97C10.3 16.97 8.83 16.33 7.36 15.06C5.9 13.78 4.58 12.14 3.41 10.12C2.23 8.1 1.14 5.75 0.13 3.06C0.04 2.85 0 2.6 0 2.33ZM16.01 8.85C15.63 8.85 15.3 8.75 15 8.56C14.69 8.37 14.54 8.1 14.54 7.77L14.54 1.98C14.54 1.65 14.45 1.41 14.28 1.27C14.1 1.12 13.79 1.05 13.34 1.05L11.82 1.1C11.06 1.1 10.48 1.23 10.09 1.48C10.87 1.83 11.27 2.4 11.27 3.19L11.27 7.61C11.23 8.03 11.05 8.38 10.73 8.66C10.41 8.94 10.06 9.07 9.67 9.07C9.13 9.07 8.73 8.83 8.44 8.34C7.06 6.37 6.03 4.49 5.35 2.71L5.11 2.06L1.57 2.03C1.34 2.03 1.21 2.04 1.18 2.07C1.15 2.09 1.14 2.17 1.14 2.28C1.14 2.43 1.16 2.59 1.19 2.76L1.75 4.17C3.25 7.81 4.87 10.67 6.62 12.77C8.37 14.87 10.08 15.91 11.77 15.91L14.44 15.91C14.54 15.91 14.62 15.88 14.68 15.83C14.73 15.77 14.77 15.65 14.81 15.49L14.86 15.23L15.37 13.02C15.51 12.72 15.63 12.52 15.74 12.42C15.94 12.23 16.17 12.14 16.43 12.14C16.86 12.14 17.3 12.38 17.74 12.87L20 15.59C20.15 15.8 20.3 15.91 20.46 15.91L24.85 15.91C25.39 15.91 25.65 15.79 25.65 15.54C25.65 15.45 25.63 15.37 25.57 15.29L21.71 10.73C21.41 10.38 21.26 10 21.26 9.6C21.26 9.2 21.4 8.81 21.68 8.44C21.91 8.11 22.36 7.55 23.03 6.77C23.69 5.99 24.28 5.26 24.77 4.58C25.27 3.91 25.6 3.29 25.76 2.74L25.84 2.41C25.82 2.38 25.81 2.32 25.81 2.25C25.81 2.17 25.8 2.11 25.79 2.06L21.6 2.06C21.34 2.16 21.12 2.31 20.96 2.51L20.8 2.99C20.36 4.14 19.2 5.93 17.31 8.34C16.94 8.68 16.5 8.85 16.01 8.85Z" fill="#666666" fill-opacity="1.000000" fill-rule="nonzero"></path></svg><svg viewBox="0 0 24 18.6763" fill="none" id="youtube"><path  d="M15.85 8.79L10.61 5.3C10.51 5.23 10.4 5.19 10.28 5.19C10.16 5.18 10.04 5.21 9.94 5.27C9.84 5.32 9.75 5.41 9.69 5.51C9.63 5.61 9.6 5.72 9.6 5.84L9.6 12.82C9.6 12.94 9.63 13.06 9.69 13.16C9.75 13.26 9.84 13.35 9.94 13.4C10.05 13.46 10.16 13.48 10.28 13.48C10.4 13.47 10.51 13.44 10.61 13.37L15.85 9.88C15.94 9.82 16.01 9.74 16.06 9.64C16.11 9.55 16.14 9.44 16.14 9.33C16.14 9.23 16.11 9.12 16.06 9.02C16.01 8.93 15.94 8.85 15.85 8.79ZM10.9 11.6L10.9 7.06L14.31 9.33L10.9 11.6ZM23.38 3.04C23.29 2.67 23.11 2.33 22.86 2.05C22.6 1.76 22.29 1.54 21.93 1.4C18.21 -0.03 12.25 0 12 0C11.74 0 5.78 -0.03 2.06 1.4C1.7 1.54 1.39 1.76 1.13 2.05C0.88 2.33 0.7 2.67 0.61 3.04C0.32 4.11 0 6.07 0 9.33C0 12.6 0.32 14.56 0.61 15.63C0.7 16 0.88 16.34 1.13 16.62C1.39 16.91 1.7 17.13 2.06 17.26C5.78 18.69 11.74 18.67 12 18.67L12.07 18.67C12.82 18.67 18.39 18.63 21.93 17.26C22.29 17.13 22.6 16.91 22.86 16.62C23.11 16.34 23.29 16 23.38 15.63C23.67 14.56 24 12.6 24 9.33C24 6.07 23.67 4.11 23.38 3.04ZM22.12 15.3C22.08 15.47 21.99 15.62 21.88 15.75C21.77 15.88 21.62 15.98 21.46 16.04C17.97 17.38 12.06 17.36 12 17.36C11.93 17.36 6.02 17.38 2.53 16.04C2.37 15.98 2.22 15.88 2.11 15.75C2 15.62 1.91 15.47 1.87 15.3C1.61 14.3 1.3 12.45 1.3 9.33C1.3 6.21 1.61 4.37 1.87 3.37C1.91 3.2 2 3.05 2.11 2.92C2.22 2.79 2.37 2.69 2.53 2.62C6.02 1.28 11.93 1.3 12 1.3C12.06 1.3 17.97 1.28 21.46 2.62C21.62 2.69 21.77 2.79 21.88 2.92C21.99 3.05 22.08 3.2 22.12 3.37C22.38 4.37 22.69 6.21 22.69 9.33C22.69 12.45 22.38 14.3 22.12 15.3Z" fill="#666666" fill-opacity="1.000000" fill-rule="nonzero"></path></svg></svg>
